images/3235089.svg

<?xml version="1.0" encoding="UTF-8"?>
<svg xmlns="http://www.w3.org/2000/svg" xmlns:xlink="http://www.w3.org/1999/xlink" width="300pt" height="300pt" viewBox="0 0 300 300" version="1.1">
<defs>
<g>
<symbol overflow="visible" id="glyph0-0">
<path style="stroke:none;" d="M 0.546875 1.9375 L 0.546875 -7.75 L 6.046875 -7.75 L 6.046875 1.9375 Z M 1.171875 1.328125 L 5.4375 1.328125 L 5.4375 -7.140625 L 1.171875 -7.140625 Z M 1.171875 1.328125 "/>
</symbol>
<symbol overflow="visible" id="glyph0-1">
<path style="stroke:none;" d="M 4.328125 -7.28125 C 3.546875 -7.28125 2.921875 -6.984375 2.453125 -6.390625 C 1.992188 -5.804688 1.765625 -5.007812 1.765625 -4 C 1.765625 -2.988281 1.992188 -2.1875 2.453125 -1.59375 C 2.921875 -1.007812 3.546875 -0.71875 4.328125 -0.71875 C 5.117188 -0.71875 5.742188 -1.007812 6.203125 -1.59375 C 6.660156 -2.1875 6.890625 -2.988281 6.890625 -4 C 6.890625 -5.007812 6.660156 -5.804688 6.203125 -6.390625 C 5.742188 -6.984375 5.117188 -7.28125 4.328125 -7.28125 Z M 4.328125 -8.171875 C 5.453125 -8.171875 6.351562 -7.789062 7.03125 -7.03125 C 7.707031 -6.28125 8.046875 -5.269531 8.046875 -4 C 8.046875 -2.738281 7.707031 -1.726562 7.03125 -0.96875 C 6.351562 -0.21875 5.453125 0.15625 4.328125 0.15625 C 3.203125 0.15625 2.300781 -0.21875 1.625 -0.96875 C 0.957031 -1.71875 0.625 -2.726562 0.625 -4 C 0.625 -5.269531 0.957031 -6.28125 1.625 -7.03125 C 2.300781 -7.789062 3.203125 -8.171875 4.328125 -8.171875 Z M 4.328125 -8.171875 "/>
</symbol>
<symbol overflow="visible" id="glyph0-2">
<path style="stroke:none;" d="M 1.078125 -8.015625 L 2.546875 -8.015625 L 6.09375 -1.3125 L 6.09375 -8.015625 L 7.15625 -8.015625 L 7.15625 0 L 5.6875 0 L 2.125 -6.703125 L 2.125 0 L 1.078125 0 Z M 1.078125 -8.015625 "/>
</symbol>
<symbol overflow="visible" id="glyph0-3">
<path style="stroke:none;" d="M 1.078125 -8.015625 L 2.171875 -8.015625 L 2.171875 -4.734375 L 6.109375 -4.734375 L 6.109375 -8.015625 L 7.1875 -8.015625 L 7.1875 0 L 6.109375 0 L 6.109375 -3.8125 L 2.171875 -3.8125 L 2.171875 0 L 1.078125 0 Z M 1.078125 -8.015625 "/>
</symbol>
</g>
</defs>
<g id="surface35321">
<rect x="0" y="0" width="300" height="300" style="fill:rgb(100%,100%,100%);fill-opacity:1;stroke:none;"/>
<path style="fill:none;stroke-width:1.2;stroke-linecap:butt;stroke-linejoin:miter;stroke:rgb(0%,0%,0%);stroke-opacity:1;stroke-miterlimit:10;" d="M 233.4375 219.519531 L 243.222656 209.355469 "/>
<path style="fill:none;stroke-width:1.2;stroke-linecap:butt;stroke-linejoin:miter;stroke:rgb(100%,0%,0%);stroke-opacity:1;stroke-miterlimit:10;" d="M 243.222656 209.355469 L 253.003906 199.191406 "/>
<path style="fill:none;stroke-width:1.2;stroke-linecap:butt;stroke-linejoin:miter;stroke:rgb(100%,0%,0%);stroke-opacity:1;stroke-miterlimit:10;" d="M 253.003906 199.191406 L 249.09375 185.636719 "/>
<path style="fill:none;stroke-width:1.2;stroke-linecap:butt;stroke-linejoin:miter;stroke:rgb(0%,0%,0%);stroke-opacity:1;stroke-miterlimit:10;" d="M 249.09375 185.636719 L 245.183594 172.082031 "/>
<path style=" stroke:none;fill-rule:nonzero;fill:rgb(100%,100%,100%);fill-opacity:1;" d="M 249.003906 192.691406 L 258.003906 192.691406 L 258.003906 205.691406 L 249.003906 205.691406 Z M 249.003906 192.691406 "/>
<g style="fill:rgb(100%,0%,0%);fill-opacity:1;">
  <use xlink:href="#glyph0-1" x="249.003906" y="202.592773"/>
</g>
<path style="fill:none;stroke-width:1.2;stroke-linecap:butt;stroke-linejoin:miter;stroke:rgb(0%,0%,0%);stroke-opacity:1;stroke-miterlimit:10;" d="M 245.183594 172.082031 L 217.796875 165.300781 "/>
<path style="fill:none;stroke-width:1.2;stroke-linecap:butt;stroke-linejoin:miter;stroke:rgb(0%,0%,0%);stroke-opacity:1;stroke-miterlimit:10;" d="M 244.039062 164.960938 L 222.128906 159.535156 "/>
<path style="fill:none;stroke-width:1.2;stroke-linecap:butt;stroke-linejoin:miter;stroke:rgb(0%,0%,0%);stroke-opacity:1;stroke-miterlimit:10;" d="M 264.75 151.753906 L 245.183594 172.082031 "/>
<path style="fill:none;stroke-width:1.2;stroke-linecap:butt;stroke-linejoin:miter;stroke:rgb(0%,0%,0%);stroke-opacity:1;stroke-miterlimit:10;" d="M 217.796875 165.300781 L 209.972656 138.191406 "/>
<path style="fill:none;stroke-width:1.2;stroke-linecap:butt;stroke-linejoin:miter;stroke:rgb(0%,0%,0%);stroke-opacity:1;stroke-miterlimit:10;" d="M 209.972656 138.191406 L 229.539062 117.863281 "/>
<path style="fill:none;stroke-width:1.2;stroke-linecap:butt;stroke-linejoin:miter;stroke:rgb(0%,0%,0%);stroke-opacity:1;stroke-miterlimit:10;" d="M 207.148438 131.554688 L 222.800781 115.292969 "/>
<path style="fill:none;stroke-width:1.2;stroke-linecap:butt;stroke-linejoin:miter;stroke:rgb(0%,0%,0%);stroke-opacity:1;stroke-miterlimit:10;" d="M 184.59375 125.867188 L 209.972656 138.191406 "/>
<path style="fill:none;stroke-width:1.2;stroke-linecap:butt;stroke-linejoin:miter;stroke:rgb(0%,0%,0%);stroke-opacity:1;stroke-miterlimit:10;" d="M 229.539062 117.863281 L 256.929688 124.644531 "/>
<path style="fill:none;stroke-width:1.2;stroke-linecap:butt;stroke-linejoin:miter;stroke:rgb(0%,0%,0%);stroke-opacity:1;stroke-miterlimit:10;" d="M 229.539062 117.863281 L 222.898438 105.417969 "/>
<path style="fill:none;stroke-width:1.2;stroke-linecap:butt;stroke-linejoin:miter;stroke:rgb(0%,0%,100%);stroke-opacity:1;stroke-miterlimit:10;" d="M 222.898438 105.417969 L 216.253906 92.972656 "/>
<path style="fill:none;stroke-width:1.2;stroke-linecap:butt;stroke-linejoin:miter;stroke:rgb(0%,0%,0%);stroke-opacity:1;stroke-miterlimit:10;" d="M 256.929688 124.644531 L 264.75 151.753906 "/>
<path style="fill:none;stroke-width:1.2;stroke-linecap:butt;stroke-linejoin:miter;stroke:rgb(0%,0%,0%);stroke-opacity:1;stroke-miterlimit:10;" d="M 251.332031 129.195312 L 257.589844 150.882812 "/>
<path style="fill:none;stroke-width:1.2;stroke-linecap:butt;stroke-linejoin:miter;stroke:rgb(0%,0%,100%);stroke-opacity:1;stroke-miterlimit:10;" d="M 216.253906 92.972656 L 202.363281 95.445312 "/>
<path style="fill:none;stroke-width:1.2;stroke-linecap:butt;stroke-linejoin:miter;stroke:rgb(0%,0%,0%);stroke-opacity:1;stroke-miterlimit:10;" d="M 202.363281 95.445312 L 188.476562 97.917969 "/>
<path style=" stroke:none;fill-rule:nonzero;fill:rgb(100%,100%,100%);fill-opacity:1;" d="M 208.253906 86.472656 L 225.253906 86.472656 L 225.253906 99.472656 L 208.253906 99.472656 Z M 208.253906 86.472656 "/>
<g style="fill:rgb(0%,0%,100%);fill-opacity:1;">
  <use xlink:href="#glyph0-2" x="208.253906" y="96.374023"/>
  <use xlink:href="#glyph0-3" x="216.237305" y="96.374023"/>
</g>
<path style="fill:none;stroke-width:1.2;stroke-linecap:butt;stroke-linejoin:miter;stroke:rgb(0%,0%,0%);stroke-opacity:1;stroke-miterlimit:10;" d="M 188.476562 97.917969 L 184.59375 125.867188 "/>
<path style="fill:none;stroke-width:1.2;stroke-linecap:butt;stroke-linejoin:miter;stroke:rgb(0%,0%,0%);stroke-opacity:1;stroke-miterlimit:10;" d="M 194.664062 101.625 L 191.558594 123.984375 "/>
<path style="fill:none;stroke-width:1.2;stroke-linecap:butt;stroke-linejoin:miter;stroke:rgb(0%,0%,0%);stroke-opacity:1;stroke-miterlimit:10;" d="M 184.59375 125.867188 L 159.703125 139.152344 "/>
<path style="fill:none;stroke-width:1.2;stroke-linecap:butt;stroke-linejoin:miter;stroke:rgb(0%,0%,0%);stroke-opacity:1;stroke-miterlimit:10;" d="M 159.703125 139.152344 L 135.75 124.238281 "/>
<path style="fill:none;stroke-width:1.2;stroke-linecap:butt;stroke-linejoin:miter;stroke:rgb(0%,0%,0%);stroke-opacity:1;stroke-miterlimit:10;" d="M 135.75 124.238281 L 123.304688 130.882812 "/>
<path style="fill:none;stroke-width:1.2;stroke-linecap:butt;stroke-linejoin:miter;stroke:rgb(0%,0%,100%);stroke-opacity:1;stroke-miterlimit:10;" d="M 123.304688 130.882812 L 110.859375 137.527344 "/>
<path style="fill:none;stroke-width:1.2;stroke-linecap:butt;stroke-linejoin:miter;stroke:rgb(0%,0%,100%);stroke-opacity:1;stroke-miterlimit:10;" d="M 110.859375 137.527344 L 98.886719 130.070312 "/>
<path style="fill:none;stroke-width:1.2;stroke-linecap:butt;stroke-linejoin:miter;stroke:rgb(0%,0%,0%);stroke-opacity:1;stroke-miterlimit:10;" d="M 98.886719 130.070312 L 86.910156 122.613281 "/>
<path style=" stroke:none;fill-rule:nonzero;fill:rgb(100%,100%,100%);fill-opacity:1;" d="M 102.859375 131.027344 L 119.859375 131.027344 L 119.859375 144.027344 L 102.859375 144.027344 Z M 102.859375 131.027344 "/>
<g style="fill:rgb(0%,0%,100%);fill-opacity:1;">
  <use xlink:href="#glyph0-2" x="102.859375" y="140.928711"/>
  <use xlink:href="#glyph0-3" x="110.842773" y="140.928711"/>
</g>
<path style="fill:none;stroke-width:1.2;stroke-linecap:butt;stroke-linejoin:miter;stroke:rgb(0%,0%,0%);stroke-opacity:1;stroke-miterlimit:10;" d="M 86.910156 122.613281 L 87.378906 108.515625 "/>
<path style="fill:none;stroke-width:1.2;stroke-linecap:butt;stroke-linejoin:miter;stroke:rgb(0%,0%,100%);stroke-opacity:1;stroke-miterlimit:10;" d="M 87.378906 108.515625 L 87.847656 94.414062 "/>
<path style="fill:none;stroke-width:1.2;stroke-linecap:butt;stroke-linejoin:miter;stroke:rgb(0%,0%,0%);stroke-opacity:1;stroke-miterlimit:10;" d="M 80.367188 119.574219 L 80.742188 108.292969 "/>
<path style="fill:none;stroke-width:1.2;stroke-linecap:butt;stroke-linejoin:miter;stroke:rgb(0%,0%,100%);stroke-opacity:1;stroke-miterlimit:10;" d="M 80.742188 108.292969 L 81.117188 97.011719 "/>
<path style="fill:none;stroke-width:1.2;stroke-linecap:butt;stroke-linejoin:miter;stroke:rgb(0%,0%,0%);stroke-opacity:1;stroke-miterlimit:10;" d="M 62.019531 135.898438 L 86.910156 122.613281 "/>
<path style="fill:none;stroke-width:1.2;stroke-linecap:butt;stroke-linejoin:miter;stroke:rgb(0%,0%,100%);stroke-opacity:1;stroke-miterlimit:10;" d="M 87.847656 94.414062 L 75.871094 86.957031 "/>
<path style="fill:none;stroke-width:1.2;stroke-linecap:butt;stroke-linejoin:miter;stroke:rgb(0%,0%,0%);stroke-opacity:1;stroke-miterlimit:10;" d="M 75.871094 86.957031 L 63.894531 79.5 "/>
<path style=" stroke:none;fill-rule:nonzero;fill:rgb(100%,100%,100%);fill-opacity:1;" d="M 83.847656 87.914062 L 91.847656 87.914062 L 91.847656 100.914062 L 83.847656 100.914062 Z M 83.847656 87.914062 "/>
<g style="fill:rgb(0%,0%,100%);fill-opacity:1;">
  <use xlink:href="#glyph0-2" x="83.847656" y="97.81543"/>
</g>
<path style="fill:none;stroke-width:1.2;stroke-linecap:butt;stroke-linejoin:miter;stroke:rgb(0%,0%,0%);stroke-opacity:1;stroke-miterlimit:10;" d="M 63.894531 79.5 L 51.449219 86.144531 "/>
<path style="fill:none;stroke-width:1.2;stroke-linecap:butt;stroke-linejoin:miter;stroke:rgb(0%,0%,100%);stroke-opacity:1;stroke-miterlimit:10;" d="M 51.449219 86.144531 L 39.003906 92.789062 "/>
<path style="fill:none;stroke-width:1.2;stroke-linecap:butt;stroke-linejoin:miter;stroke:rgb(0%,0%,0%);stroke-opacity:1;stroke-miterlimit:10;" d="M 64.53125 86.6875 L 54.578125 92 "/>
<path style="fill:none;stroke-width:1.2;stroke-linecap:butt;stroke-linejoin:miter;stroke:rgb(0%,0%,100%);stroke-opacity:1;stroke-miterlimit:10;" d="M 54.578125 92 L 44.621094 97.316406 "/>
<path style="fill:none;stroke-width:1.2;stroke-linecap:butt;stroke-linejoin:miter;stroke:rgb(0%,0%,100%);stroke-opacity:1;stroke-miterlimit:10;" d="M 39.003906 92.789062 L 38.535156 106.886719 "/>
<path style="fill:none;stroke-width:1.2;stroke-linecap:butt;stroke-linejoin:miter;stroke:rgb(0%,0%,0%);stroke-opacity:1;stroke-miterlimit:10;" d="M 38.535156 106.886719 L 38.066406 120.988281 "/>
<path style=" stroke:none;fill-rule:nonzero;fill:rgb(100%,100%,100%);fill-opacity:1;" d="M 35.003906 86.289062 L 43.003906 86.289062 L 43.003906 99.289062 L 35.003906 99.289062 Z M 35.003906 86.289062 "/>
<g style="fill:rgb(0%,0%,100%);fill-opacity:1;">
  <use xlink:href="#glyph0-2" x="35.003906" y="96.19043"/>
</g>
<path style="fill:none;stroke-width:1.2;stroke-linecap:butt;stroke-linejoin:miter;stroke:rgb(0%,0%,0%);stroke-opacity:1;stroke-miterlimit:10;" d="M 38.066406 120.988281 L 62.019531 135.898438 "/>
<path style="fill:none;stroke-width:1.2;stroke-linecap:butt;stroke-linejoin:miter;stroke:rgb(0%,0%,0%);stroke-opacity:1;stroke-miterlimit:10;" d="M 43.96875 116.84375 L 63.132812 128.773438 "/>
<path style="fill:none;stroke-width:1.2;stroke-linecap:butt;stroke-linejoin:miter;stroke:rgb(0%,0%,0%);stroke-opacity:1;stroke-miterlimit:10;" d="M 62.019531 135.898438 L 61.078125 164.101562 "/>
<path style="fill:none;stroke-width:1.2;stroke-linecap:butt;stroke-linejoin:miter;stroke:rgb(0%,0%,0%);stroke-opacity:1;stroke-miterlimit:10;" d="M 61.078125 164.101562 L 36.1875 177.386719 "/>
<path style="fill:none;stroke-width:1.2;stroke-linecap:butt;stroke-linejoin:miter;stroke:rgb(0%,0%,0%);stroke-opacity:1;stroke-miterlimit:10;" d="M 61.714844 171.285156 L 41.804688 181.914062 "/>
<path style="fill:none;stroke-width:1.2;stroke-linecap:butt;stroke-linejoin:miter;stroke:rgb(0%,0%,0%);stroke-opacity:1;stroke-miterlimit:10;" d="M 85.03125 179.011719 L 61.078125 164.101562 "/>
<path style="fill:none;stroke-width:1.2;stroke-linecap:butt;stroke-linejoin:miter;stroke:rgb(0%,0%,0%);stroke-opacity:1;stroke-miterlimit:10;" d="M 36.1875 177.386719 L 35.25 205.585938 "/>
<path style="fill:none;stroke-width:1.2;stroke-linecap:butt;stroke-linejoin:miter;stroke:rgb(0%,0%,0%);stroke-opacity:1;stroke-miterlimit:10;" d="M 35.25 205.585938 L 59.203125 220.5 "/>
<path style="fill:none;stroke-width:1.2;stroke-linecap:butt;stroke-linejoin:miter;stroke:rgb(0%,0%,0%);stroke-opacity:1;stroke-miterlimit:10;" d="M 41.152344 201.441406 L 60.316406 213.371094 "/>
<path style="fill:none;stroke-width:1.2;stroke-linecap:butt;stroke-linejoin:miter;stroke:rgb(0%,0%,0%);stroke-opacity:1;stroke-miterlimit:10;" d="M 59.203125 220.5 L 84.09375 207.210938 "/>
<path style="fill:none;stroke-width:1.2;stroke-linecap:butt;stroke-linejoin:miter;stroke:rgb(0%,0%,0%);stroke-opacity:1;stroke-miterlimit:10;" d="M 84.09375 207.210938 L 85.03125 179.011719 "/>
<path style="fill:none;stroke-width:1.2;stroke-linecap:butt;stroke-linejoin:miter;stroke:rgb(0%,0%,0%);stroke-opacity:1;stroke-miterlimit:10;" d="M 77.550781 204.171875 L 78.300781 181.613281 "/>
<path style="fill:none;stroke-width:1.2;stroke-linecap:butt;stroke-linejoin:miter;stroke:rgb(0%,0%,0%);stroke-opacity:1;stroke-miterlimit:10;" d="M 85.03125 179.011719 L 97.476562 172.367188 "/>
<path style="fill:none;stroke-width:1.2;stroke-linecap:butt;stroke-linejoin:miter;stroke:rgb(100%,0%,0%);stroke-opacity:1;stroke-miterlimit:10;" d="M 97.476562 172.367188 L 109.921875 165.726562 "/>
<path style="fill:none;stroke-width:1.2;stroke-linecap:butt;stroke-linejoin:miter;stroke:rgb(100%,0%,0%);stroke-opacity:1;stroke-miterlimit:10;" d="M 109.921875 165.726562 L 121.898438 173.183594 "/>
<path style="fill:none;stroke-width:1.2;stroke-linecap:butt;stroke-linejoin:miter;stroke:rgb(0%,0%,0%);stroke-opacity:1;stroke-miterlimit:10;" d="M 121.898438 173.183594 L 133.875 180.636719 "/>
<path style=" stroke:none;fill-rule:nonzero;fill:rgb(100%,100%,100%);fill-opacity:1;" d="M 105.921875 159.226562 L 114.921875 159.226562 L 114.921875 172.226562 L 105.921875 172.226562 Z M 105.921875 159.226562 "/>
<g style="fill:rgb(100%,0%,0%);fill-opacity:1;">
  <use xlink:href="#glyph0-1" x="105.921875" y="169.12793"/>
</g>
</g>
</svg>

<svg xmlns="http://www.w3.org/2000/svg" xmlns:xlink="http://www.w3.org/1999/xlink" width="300pt" height="300pt" viewBox="0 0 300 300"><defs><symbol overflow="visible"><path d="M.547 1.938V-7.75h5.5v9.688zm.625-.61h4.266v-8.47H1.171zm0 0"/></symbol><symbol overflow="visible" id="a"><path d="M4.328-7.28c-.78 0-1.406.296-1.875.89-.46.585-.687 1.382-.687 2.39 0 1.012.226 1.813.687 2.406.47.586 1.094.875 1.875.875.79 0 1.414-.288 1.875-.874.457-.593.688-1.394.688-2.406 0-1.008-.23-1.805-.687-2.39-.46-.594-1.086-.89-1.875-.89zm0-.892c1.125 0 2.024.383 2.703 1.14C7.708-6.28 8.048-5.27 8.048-4c0 1.262-.34 2.273-1.016 3.03C6.353-.22 5.454.157 4.33.157S2.3-.22 1.625-.97c-.668-.75-1-1.757-1-3.03 0-1.27.332-2.28 1-3.03.676-.76 1.578-1.142 2.703-1.142zm0 0"/></symbol><symbol overflow="visible" id="b"><path d="M1.078-8.016h1.47l3.546 6.704v-6.704h1.062V0H5.688L2.124-6.703V0H1.078zm0 0"/></symbol><symbol overflow="visible" id="c"><path d="M1.078-8.016h1.094v3.282H6.11v-3.282h1.077V0H6.11v-3.813H2.17V0H1.078zm0 0"/></symbol></defs><g><path fill="#fff" d="M0 0h300v300H0z"/><path d="M233.438 219.52l9.785-10.165" stroke-width="1.2" stroke="#000" stroke-miterlimit="10" fill="none"/><path d="M243.223 209.355l9.78-10.164M253.004 199.19l-3.91-13.553" stroke-width="1.2" stroke="#f00" stroke-miterlimit="10" fill="none"/><path d="M249.094 185.637l-3.91-13.555" stroke-width="1.2" stroke="#000" stroke-miterlimit="10" fill="none"/><path d="M249.004 192.69h9v13h-9zm0 0" fill="#fff"/><use xlink:href="#a" x="249.004" y="202.593" fill="#f00"/><path d="M245.184 172.082l-27.387-6.78M244.04 164.96l-21.91-5.425M264.75 151.754l-19.566 20.328M217.797 165.3l-7.824-27.11M209.973 138.19l19.566-20.327M207.148 131.555l15.653-16.262M184.594 125.867l25.38 12.324M229.54 117.863l27.39 6.782M229.54 117.863l-6.642-12.445" stroke-width="1.2" stroke="#000" stroke-miterlimit="10" fill="none"/><path d="M222.898 105.418l-6.644-12.445" stroke-width="1.2" stroke="#00f" stroke-miterlimit="10" fill="none"/><path d="M256.93 124.645l7.82 27.11M251.332 129.195l6.258 21.688" stroke-width="1.2" stroke="#000" stroke-miterlimit="10" fill="none"/><path d="M216.254 92.973l-13.89 2.472" stroke-width="1.2" stroke="#00f" stroke-miterlimit="10" fill="none"/><path d="M202.363 95.445l-13.886 2.473" stroke-width="1.2" stroke="#000" stroke-miterlimit="10" fill="none"/><path d="M208.254 86.473h17v13h-17zm0 0" fill="#fff"/><g fill="#00f"><use xlink:href="#b" x="208.254" y="96.374"/><use xlink:href="#c" x="216.237" y="96.374"/></g><path d="M188.477 97.918l-3.883 27.95M194.664 101.625l-3.105 22.36M184.594 125.867l-24.89 13.285M159.703 139.152l-23.953-14.914M135.75 124.238l-12.445 6.645" stroke-width="1.2" stroke="#000" stroke-miterlimit="10" fill="none"/><path d="M123.305 130.883l-12.446 6.644M110.86 137.527l-11.973-7.457" stroke-width="1.2" stroke="#00f" stroke-miterlimit="10" fill="none"/><path d="M98.887 130.07l-11.977-7.457" stroke-width="1.2" stroke="#000" stroke-miterlimit="10" fill="none"/><path d="M102.86 131.027h17v13h-17zm0 0" fill="#fff"/><g fill="#00f"><use xlink:href="#b" x="102.859" y="140.929"/><use xlink:href="#c" x="110.843" y="140.929"/></g><path d="M86.91 122.613l.47-14.097" stroke-width="1.2" stroke="#000" stroke-miterlimit="10" fill="none"/><path d="M87.38 108.516l.468-14.102" stroke-width="1.2" stroke="#00f" stroke-miterlimit="10" fill="none"/><path d="M80.367 119.574l.375-11.28" stroke-width="1.2" stroke="#000" stroke-miterlimit="10" fill="none"/><path d="M80.742 108.293l.375-11.28" stroke-width="1.2" stroke="#00f" stroke-miterlimit="10" fill="none"/><path d="M62.02 135.898l24.89-13.285" stroke-width="1.2" stroke="#000" stroke-miterlimit="10" fill="none"/><path d="M87.848 94.414L75.87 86.957" stroke-width="1.2" stroke="#00f" stroke-miterlimit="10" fill="none"/><path d="M75.87 86.957L63.896 79.5" stroke-width="1.2" stroke="#000" stroke-miterlimit="10" fill="none"/><path d="M83.848 87.914h8v13h-8zm0 0" fill="#fff"/><use xlink:href="#b" x="83.848" y="97.815" fill="#00f"/><path d="M63.895 79.5L51.45 86.145" stroke-width="1.2" stroke="#000" stroke-miterlimit="10" fill="none"/><path d="M51.45 86.145L39.003 92.79" stroke-width="1.2" stroke="#00f" stroke-miterlimit="10" fill="none"/><path d="M64.53 86.688L54.58 92" stroke-width="1.2" stroke="#000" stroke-miterlimit="10" fill="none"/><path d="M54.578 92l-9.957 5.316M39.004 92.79l-.47 14.097" stroke-width="1.2" stroke="#00f" stroke-miterlimit="10" fill="none"/><path d="M38.535 106.887l-.47 14.1" stroke-width="1.2" stroke="#000" stroke-miterlimit="10" fill="none"/><path d="M35.004 86.29h8v13h-8zm0 0" fill="#fff"/><use xlink:href="#b" x="35.004" y="96.19" fill="#00f"/><path d="M38.066 120.988l23.954 14.91M43.97 116.844l19.163 11.93M62.02 135.898l-.942 28.204M61.078 164.102l-24.89 13.285M61.715 171.285l-19.91 10.63M85.03 179.012l-23.952-14.91M36.188 177.387l-.938 28.2M35.25 205.586L59.203 220.5M41.152 201.44l19.164 11.93M59.203 220.5l24.89-13.29M84.094 207.21l.937-28.198M77.55 204.172l.75-22.56M85.03 179.012l12.447-6.645" stroke-width="1.2" stroke="#000" stroke-miterlimit="10" fill="none"/><path d="M97.477 172.367l12.445-6.64M109.922 165.727l11.976 7.457" stroke-width="1.2" stroke="#f00" stroke-miterlimit="10" fill="none"/><path d="M121.898 173.184l11.977 7.453" stroke-width="1.2" stroke="#000" stroke-miterlimit="10" fill="none"/><path d="M105.922 159.227h9v13h-9zm0 0" fill="#fff"/><use xlink:href="#a" x="105.922" y="169.128" fill="#f00"/></g></svg>
